X: 240
T: No_94_Chicken_Dance_Song_(c).krn
N: Derived from No_94_Chicken_Dance_Song_(c).krn
%%abc-version 2.0
%%abcx-abcm2ps-target-version 5.9.1 (29 Sep 2008)
%%abc-creator hum2abc beta
%%abcx-conversion-date 2019/03/15 08:38:45
%%humdrum-veritas 3208387347
%%humdrum-veritas-data 2944316768
%%linebreak <none>
%%barnumbers 0
L: 1/8
M: 2/4
K: F clef=bass
[K:clef=bass][M:2/4]C3B, [I:setbarnb 2]| 
(3B,F,C C3/D/ | 
C3B, | 
(3:2:1A,F,(3:2:1A,/ A,3/C/ ||  
[M:5/8]B,3A,2 ||  
[M:2/4]F,/F,F,/ F,3/A,/ ||  
[M:3/4]F,3F,F,2 ||  
[M:2/4]A,4 | 
F,3/A,/ A,3/C/ ||  
[M:3/4]B,4A,2 ||  
[M:2/4]F, z F,3/A,/ ||  
[M:3/4]F,3F,F,2 :|]  



